X: 33015
T: Price Of A Pig, The
R: jig
M: 6/8
K: Ddorian
|:"D"AGA D2 D|"C"EDE C2 C|"D"A3/2c/A AGE|"C"GAB cBc|
"D"AGA D2 D|"C"EDE C2 C|"D"A3/2c/A AGE|"C"EDC "D"D3:|
"D"ABc d3/2A/A|ABc d2 d|dcA AGE|"C"GAB cBc|
"D"ABc d3/2A/A|ABc d2 d|dcA AGE|"C"EDC "D"D3|
"D"ABc d3/2A/A|ABc d2 d|dcA AGE|"C"GAB cBc|
"D"AGA D2 D|"C"EDE C2 C|"D"A3/2c/A AGE|"C"EDC "D"D3||

